packages/IcoMoon/src/Download3Icon/index.svg

<svg version="1.1" xmlns="http://www.w3.org/2000/svg" width="16" height="16" viewBox="0 0 16 16">
<path d="M8 9l4-4h-3v-4h-2v4h-3zM11.636 7.364l-1.121 1.121 4.064 1.515-6.579 2.453-6.579-2.453 4.064-1.515-1.121-1.121-4.364 1.636v4l8 3 8-3v-4z"></path>
</svg>

<svg xmlns="http://www.w3.org/2000/svg" viewBox="0 0 16 16">
  <path d="M8 9l4-4H9V1H7v4H4zm3.636-1.636l-1.121 1.121L14.579 10 8 12.453 1.421 10l4.064-1.515-1.121-1.121L0 9v4l8 3 8-3V9z"/>
</svg>
